images/icons.svg/Client-five.svg

<svg width="168" height="88" viewBox="0 0 168 88" fill="none" xmlns="http://www.w3.org/2000/svg">
<g id="Client 5">
<rect id="Rectangle 9" x="0.5" y="0.5" width="167" height="87" rx="3.5" stroke="#8E8F99"/>
<g id="Logo">
<g id="group">
<path id="Vector" d="M58.7919 60.373C59.0373 60.6465 59.1681 60.9891 59.1612 61.3407C59.1738 61.57 59.1288 61.7989 59.0298 62.0105C58.9307 62.2221 58.78 62.4109 58.5889 62.563C58.112 62.8872 57.5212 63.0457 56.925 63.0093H54V56.8769H56.8651C57.4307 56.8431 57.9918 56.9871 58.4524 57.2844C58.6375 57.4238 58.784 57.6 58.8804 57.7991C58.9769 57.9982 59.0206 58.2148 59.0082 58.4317C59.025 58.77 58.907 59.1026 58.6754 59.3694C58.4531 59.6131 58.1459 59.782 57.8035 59.8488C58.1916 59.9125 58.5419 60.0983 58.7919 60.373ZM55.361 59.4473H56.5856C56.8639 59.4659 57.1403 59.3935 57.3643 59.2436C57.4562 59.1686 57.5278 59.0755 57.5734 58.9716C57.6189 58.8677 57.6374 58.7558 57.6272 58.6445C57.6358 58.5335 57.617 58.4222 57.5721 58.3186C57.5273 58.215 57.4574 58.1217 57.3676 58.0453C57.137 57.8911 56.852 57.8177 56.5656 57.8386H55.361V59.4473ZM57.4841 61.799C57.5824 61.7222 57.6596 61.6261 57.7098 61.518C57.7601 61.4099 57.7819 61.2928 57.7736 61.1759C57.7811 61.0576 57.7583 60.9394 57.7069 60.8303C57.6556 60.7212 57.5771 60.6242 57.4774 60.5468C57.2378 60.3869 56.9432 60.3084 56.6455 60.3251H55.361V62.0117H56.6621C56.955 62.0269 57.2449 61.9519 57.4841 61.799Z" fill="#8E8F99"/>
<path id="Vector_2" d="M64.6487 63.0093L63.0547 60.6127H62.4557V63.0093H61.0847V56.8769H63.6803C64.3346 56.8358 64.9814 57.0224 65.4872 57.3982C65.8501 57.731 66.0689 58.1696 66.1043 58.6348C66.1397 59.1001 65.9893 59.5614 65.6803 59.9357C65.36 60.2659 64.9226 60.4861 64.4424 60.5588L66.1395 63.0093H64.6487ZM62.4557 59.7769H63.5771C64.3558 59.7769 64.7452 59.4673 64.7452 58.8482C64.7531 58.7217 64.7318 58.5952 64.6825 58.4766C64.6332 58.358 64.5571 58.2499 64.459 58.1591C64.2129 57.9749 63.896 57.8855 63.5771 57.9105H62.4424L62.4557 59.7769Z" fill="#8E8F99"/>
<path id="Vector_3" d="M72.1426 61.7752H69.4105L68.928 63.0094H67.4905L69.9995 56.9459H71.5536L74.0527 63.0094H72.6151L72.1426 61.7752ZM71.7765 60.8465L70.7782 58.2581L69.7799 60.8465H71.7765Z" fill="#8E8F99"/>
<path id="Vector_4" d="M81.5234 63.0094H80.1624L77.1109 58.8392V63.0094H75.7532V56.877H77.1109L80.1624 61.0711V56.877H81.5234V63.0094Z" fill="#8E8F99"/>
<path id="Vector_5" d="M89.2903 61.5415C89.0089 62.0045 88.5801 62.3811 88.059 62.6229C87.4665 62.8923 86.8091 63.0251 86.1456 63.0094H83.723V56.877H86.1456C86.8079 56.8614 87.4646 56.991 88.059 57.2545C88.58 57.4908 89.0092 57.8637 89.2903 58.324C89.5704 58.8227 89.7164 59.3738 89.7164 59.9327C89.7164 60.4916 89.5704 61.0427 89.2903 61.5415ZM87.7329 61.3947C88.1213 60.9873 88.3349 60.4681 88.3349 59.9312C88.3349 59.3943 88.1213 58.8752 87.7329 58.4678C87.2634 58.0988 86.6511 57.9114 86.0291 57.9465H85.084V61.9159H86.0291C86.6511 61.951 87.2634 61.7637 87.7329 61.3947Z" fill="#8E8F99"/>
<path id="Vector_6" d="M72.9945 22.7667C72.9945 22.7667 90.5614 28.7374 90.1887 37.3773V51.9908C90.1887 51.9908 72.6351 46.0172 73.0012 37.3773L72.9945 22.7667Z" fill="#8E8F99"/>
<path id="Vector_7" d="M105.839 48.5694C109.157 46.5139 112.994 45.2408 117 44.8666V40.292C112.384 41.8935 108.469 44.7975 105.839 48.5694Z" fill="#8E8F99"/>
<path id="Vector_8" d="M103.846 49.9478C106.561 45.0253 111.269 41.2268 117 39.3336V26.1521C117 26.1521 91.9823 34.6572 92.5114 46.9609V67.7668C92.5114 67.7668 93.6262 67.3863 95.3799 66.6733C95.3799 66.0083 95.3799 65.3372 95.4598 64.6631C95.9775 58.9511 98.9939 53.6581 103.846 49.9478Z" fill="#8E8F99"/>
<path id="Vector_9" d="M101.466 57.6769C101.598 56.234 101.891 54.8067 102.342 53.4169C99.3205 56.6211 97.491 60.5971 97.1104 64.7859C97.0738 65.1814 97.0538 65.5768 97.0438 65.9843C98.4647 65.3701 100.119 64.6032 101.856 63.7015C101.412 61.7197 101.281 59.6916 101.466 57.6769Z" fill="#8E8F99"/>
<path id="Vector_10" d="M102.461 57.7519C102.295 59.5746 102.399 61.4092 102.771 63.2072C109.606 59.5254 117.286 53.8363 116.99 46.961V46.3618C112.107 46.8537 107.538 48.7756 103.985 51.8321C103.154 53.7263 102.64 55.7214 102.461 57.7519Z" fill="#8E8F99"/>
</g>
</g>
</g>
</svg>

<svg xmlns="http://www.w3.org/2000/svg" width="168" height="88" fill="none"><rect width="167" height="87" x=".5" y=".5" stroke="#8E8F99" rx="3.5"/><g fill="#8E8F99"><path d="M58.792 60.373c.245.274.376.616.37.968.012.229-.033.458-.132.67-.1.211-.25.4-.441.552a2.68 2.68 0 0 1-1.664.446H54v-6.132h2.865a2.646 2.646 0 0 1 1.587.407c.186.14.332.316.428.515.097.2.14.416.128.633.017.338-.101.67-.333.937a1.59 1.59 0 0 1-.871.48c.388.064.738.25.988.524Zm-3.431-.926h1.225c.278.019.554-.053.778-.203a.732.732 0 0 0 .21-.272.663.663 0 0 0 .053-.328.685.685 0 0 0-.055-.325.752.752 0 0 0-.204-.274 1.28 1.28 0 0 0-.802-.206H55.36v1.608Zm2.123 2.352a.769.769 0 0 0 .226-.281.693.693 0 0 0 .064-.342.704.704 0 0 0-.067-.346.781.781 0 0 0-.23-.283 1.366 1.366 0 0 0-.831-.222H55.36v1.687h1.301c.293.015.583-.06.822-.213ZM64.649 63.01l-1.594-2.397h-.6v2.396h-1.37v-6.132h2.595a2.751 2.751 0 0 1 1.807.521c.363.333.582.772.617 1.237.036.465-.115.926-.424 1.3-.32.33-.757.551-1.238.624l1.698 2.45h-1.491Zm-2.193-3.233h1.121c.779 0 1.168-.31 1.168-.929a.831.831 0 0 0-.063-.371.91.91 0 0 0-.223-.318 1.307 1.307 0 0 0-.882-.248h-1.135l.014 1.866ZM72.143 61.775H69.41l-.482 1.234H67.49L70 56.946h1.554l2.499 6.063h-1.438l-.472-1.234Zm-.367-.928-.998-2.589-.998 2.588h1.996ZM81.523 63.01h-1.36l-3.052-4.17v4.17h-1.358v-6.133h1.358l3.051 4.194v-4.194h1.361v6.132ZM89.29 61.541a2.82 2.82 0 0 1-1.231 1.082c-.593.27-1.25.402-1.913.386h-2.423v-6.132h2.423a4.472 4.472 0 0 1 1.913.377c.521.237.95.61 1.231 1.07.28.499.426 1.05.426 1.609a3.28 3.28 0 0 1-.426 1.608Zm-1.557-.146a2.12 2.12 0 0 0 .602-1.464 2.12 2.12 0 0 0-.602-1.463 2.536 2.536 0 0 0-1.704-.522h-.945v3.97h.945a2.536 2.536 0 0 0 1.704-.521ZM72.995 22.767s17.566 5.97 17.194 14.61v14.614S72.635 46.017 73 37.377l-.007-14.61ZM105.839 48.57c3.318-2.056 7.155-3.33 11.161-3.703v-4.575c-4.616 1.602-8.531 4.505-11.161 8.277Z"/><path d="M103.846 49.948c2.715-4.923 7.423-8.721 13.154-10.614V26.152s-25.018 8.505-24.489 20.809v20.806s1.115-.38 2.869-1.094c0-.665 0-1.336.08-2.01.518-5.712 3.534-11.005 8.386-14.715Z"/><path d="M101.466 57.677c.132-1.443.425-2.87.876-4.26-3.022 3.204-4.851 7.18-5.232 11.369-.036.395-.056.79-.066 1.198a75.862 75.862 0 0 0 4.812-2.282 19.408 19.408 0 0 1-.39-6.025ZM102.461 57.752a18.581 18.581 0 0 0 .31 5.455c6.835-3.682 14.515-9.37 14.219-16.246v-.6c-4.883.493-9.452 2.415-13.005 5.471a18.844 18.844 0 0 0-1.524 5.92Z"/></g></svg>
